/* XPM */
static char *d9084f9e17d84e66b9b48a44b698f8a0jDA99POYVtPaKTnc[] = {
/* columns rows colors chars-per-pixel */
"64 64 256 2 ",
"   c black",
".  c #010101",
"X  c #020202",
"o  c gray1",
"O  c #040404",
"+  c gray2",
"@  c #060606",
"#  c #070707",
"$  c gray3",
"%  c #090909",
"&  c gray4",
"*  c #0B0B0B",
"=  c #0C0C0C",
"-  c gray5",
";  c #0E0E0E",
":  c gray6",
">  c #101010",
",  c #111111",
"<  c gray7",
"1  c #131313",
"2  c gray8",
"3  c #151515",
"4  c #161616",
"5  c gray9",
"6  c #181818",
"7  c #191919",
"8  c gray10",
"9  c #1B1B1B",
"0  c gray11",
"q  c #1D1D1D",
"w  c #1E1E1E",
"e  c gray12",
"r  c #202020",
"t  c gray13",
"y  c #222222",
"u  c #232323",
"i  c gray14",
"p  c #252525",
"a  c gray15",
"s  c #272727",
"d  c #282828",
"f  c gray16",
"g  c #2A2A2A",
"h  c gray17",
"j  c #2C2C2C",
"k  c #2D2D2D",
"l  c gray18",
"z  c #2F2F2F",
"x  c gray19",
"c  c #313131",
"v  c #323232",
"b  c gray20",
"n  c #343434",
"m  c #353535",
"M  c gray21",
"N  c #373737",
"B  c gray22",
"V  c #393939",
"C  c #3A3A3A",
"Z  c gray23",
"A  c #3C3C3C",
"S  c gray24",
"D  c #3E3E3E",
"F  c #3F3F3F",
"G  c gray25",
"H  c #414141",
"J  c gray26",
"K  c #434343",
"L  c #444444",
"P  c gray27",
"I  c #464646",
"U  c gray28",
"Y  c #484848",
"T  c #494949",
"R  c gray29",
"E  c #4B4B4B",
"W  c #4C4C4C",
"Q  c gray30",
"!  c #4E4E4E",
"~  c gray31",
"^  c #505050",
"/  c #515151",
"(  c gray32",
")  c #535353",
"_  c gray33",
"`  c #555555",
"'  c #565656",
"]  c gray34",
"[  c #585858",
"{  c gray35",
"}  c #5A5A5A",
"|  c #5B5B5B",
" . c gray36",
".. c #5D5D5D",
"X. c gray37",
"o. c #5F5F5F",
"O. c #606060",
"+. c gray38",
"@. c #626262",
"#. c gray39",
"$. c #646464",
"%. c #656565",
"&. c gray40",
"*. c #676767",
"=. c #686868",
"-. c DimGray",
";. c #6A6A6A",
":. c gray42",
">. c #6C6C6C",
",. c #6D6D6D",
"<. c gray43",
"1. c #6F6F6F",
"2. c gray44",
"3. c #717171",
"4. c #727272",
"5. c gray45",
"6. c #747474",
"7. c gray46",
"8. c #767676",
"9. c #777777",
"0. c gray47",
"q. c #797979",
"w. c gray48",
"e. c #7B7B7B",
"r. c #7C7C7C",
"t. c gray49",
"y. c #7E7E7E",
"u. c gray50",
"i. c #808080",
"p. c #818181",
"a. c gray51",
"s. c #838383",
"d. c #848484",
"f. c gray52",
"g. c #868686",
"h. c gray53",
"j. c #888888",
"k. c #898989",
"l. c gray54",
"z. c #8B8B8B",
"x. c gray55",
"c. c #8D8D8D",
"v. c #8E8E8E",
"b. c gray56",
"n. c #909090",
"m. c gray57",
"M. c #929292",
"N. c #939393",
"B. c gray58",
"V. c #959595",
"C. c gray59",
"Z. c #979797",
"A. c #989898",
"S. c gray60",
"D. c #9A9A9A",
"F. c #9B9B9B",
"G. c gray61",
"H. c #9D9D9D",
"J. c gray62",
"K. c #9F9F9F",
"L. c #A0A0A0",
"P. c gray63",
"I. c #A2A2A2",
"U. c gray64",
"Y. c #A4A4A4",
"T. c #A5A5A5",
"R. c gray65",
"E. c #A7A7A7",
"W. c gray66",
"Q. c #A9A9A9",
"!. c #AAAAAA",
"~. c gray67",
"^. c #ACACAC",
"/. c gray68",
"(. c #AEAEAE",
"). c #AFAFAF",
"_. c gray69",
"`. c #B1B1B1",
"'. c #B2B2B2",
"]. c gray70",
"[. c #B4B4B4",
"{. c gray71",
"}. c #B6B6B6",
"|. c #B7B7B7",
" X c gray72",
".X c #B9B9B9",
"XX c gray73",
"oX c #BBBBBB",
"OX c #BCBCBC",
"+X c gray74",
"@X c gray",
"#X c gray75",
"$X c #C0C0C0",
"%X c #C1C1C1",
"&X c gray76",
"*X c #C3C3C3",
"=X c gray77",
"-X c #C5C5C5",
";X c #C6C6C6",
":X c gray78",
">X c #C8C8C8",
",X c gray79",
"<X c #CACACA",
"1X c #CBCBCB",
"2X c gray80",
"3X c #CDCDCD",
"4X c #CECECE",
"5X c gray81",
"6X c #D0D0D0",
"7X c gray82",
"8X c #D2D2D2",
"9X c LightGray",
"0X c gray83",
"qX c #D5D5D5",
"wX c gray84",
"eX c #D7D7D7",
"rX c #D8D8D8",
"tX c gray85",
"yX c #DADADA",
"uX c gray86",
"iX c gainsboro",
"pX c #DDDDDD",
"aX c gray87",
"sX c #DFDFDF",
"dX c gray88",
"fX c #E1E1E1",
"gX c #E2E2E2",
"hX c gray89",
"jX c #E4E4E4",
"kX c gray90",
"lX c #E6E6E6",
"zX c #E7E7E7",
"xX c gray91",
"cX c #E9E9E9",
"vX c #EAEAEA",
"bX c gray92",
"nX c #ECECEC",
"mX c gray93",
"MX c #EEEEEE",
"NX c #EFEFEF",
"BX c gray94",
"VX c #F1F1F1",
"CX c gray95",
"ZX c #F3F3F3",
"AX c #F4F4F4",
"SX c gray96",
"DX c #F6F6F6",
"FX c gray97",
"GX c #F8F8F8",
"HX c #F9F9F9",
"JX c gray98",
"KX c #FBFBFB",
"LX c gray99",
"PX c #FDFDFD",
"IX c #FEFEFE",
"UX c white",
/* pixels */
"2XVXBXVX2XOX#X.XOXOXOX+X%XXX[.@XoX+XoX.XOXOXXX@X+X+X.XOXOXoX#X!.!./.Q.[.+XOX X.X.X.XoXOXoX XXX@XoX+X X$XoXoX|.pXtX%XOXOXOX X#X.X",
"VXUXUXJX;X X@X%X$X+X+XOXOX#X#X$X+X+X+X$X$X#X$XOXOXOX#X$X+X#XU.XXVXAXlXR.XX@XXX#XOX+X+XoX+X#X+X X$XOXOXXX@X$X$XcXUXqXaX1X X%XXX+X",
"HXPXUXFXAXrX=X@X$X@X&X*X+X+X$XOX#X@XOX$XOXoX&XOX#X$X#X#X:XJ.$XPXUXLXPXsXK.$X#X X@X+XXX XXX@X$X%X.X%X@X+X.X&XMXLXUX>X:X7X.X+X=XXX",
"IXUXLXUXJXCX=X*X=X%X@X%X=X*X*X$X%X-X$X*X$XoX=X%X&XoX&X$X XG.IXIXPXPXUXUX]. X-X&X$X#X&X;X&XXXOX-XaXJXyX&X:X7XFXUX8X].%X<X&X,X.X*X",
"UXUXFXiXOXdXtX+X#X4X:X$X*X#X@X&XOX*X@X#X=X#X#X#X@X%X=X&XQ.$XUXLXKXUXJXIX#X'.#X@X%XOXoX+X+X%X8XkXHXvXaXeXzXUXIXHXmXmX8X&XyXlX%X*X",
"IXGXDX:X|.<XxX9XbXJXpX*X=X-X-X=X-X=X$X#X;X:X*X-X$X:X$X=XR.eXJXUXUXDXUXIX6XE.3X%X%X*X-X=X*X=X;X:XoXOXOX$X<X<X>XvXKXAX4X#X=X,X<X*X",
"UXUXLXIXkX9XzXUXUXUXyX*X-X;X>X&X-X@X>X-X@X&X%X%X:X$X&X,XJ.zXUX4XS.$X:XLXsX/.%X$X&X=X*X$X%X=X*X#X;X%X=X:X@X=XbXHXSX.X+X#X#X8X7X7X",
"KXUXLXPXBXMXUXAX,XcXDXSXaX-X5XyX3X:XzXkX2X3X2X,X&X;X*X,XU.MXZX8X{.gX-XVXlXY.7X=X;X=X=X-X-X=X=X-X>XaXUXjX-X6XJXUXAX@XoX+X&X2XrXkX",
"KXUXUXbX+XfXcX<XoXsXUXUXFXmXNXIXJXAXPXSXgXtX3X;X-X1X%X<XY.NXPXHXU.3XUXUXfX).<X-X>X=X:X-X;X:X;X:XrXLXIXLXuXfXUXUXnXXX9X7X>X=X;X:X",
"UXDXGXlX#XtX5X[.-X7XMXUXUXUXPXDXsXqXwX4X-X>X,X<X,X1X-X3XH.JXIXJX{.;XKXUXdX&X6X-X%XwX;X2X7X*X1X:X*XkXUXjX].wXgXUXSXcXIXKXeX;X,X4X",
"KX5X1XdX>X$X2XeX4X,XtXAXKXBXhXuX3X:X1X1X>X2X1X:X4X,X;X4XL.MXcXK./.+X[.PX8XrXLXpXdXAXgXaXtX9X2X,X6XZXPX&X+X`.uXIXUXKXzXhX>X=X1X1X",
"KX3X4X*X&XdXeX<X0XiXdXVXUXBXpXiX8X3X4X4X3X4X4X<X:X,X1XeX[.bXUX=X[.@XhXIX1XNXUXPXDXhXrXqXrXOX;X1X<XMXfXwXGX2X-XKXUXBX*X#X#X1X5X1X",
"LXDXLXCXeX4XtX0XtXjXyX9XeX0X5X<X8X6X3X3X2X2X4X3X7X7X4XfX,X8XKXUXUXUXUXJX>XLXLXNXdXUXSXyXbXSX0XeX3X6XqXUXPXhXAXJX6X4X$X%X<X3X4X8X",
"lXhXSXkX6X9X8X8X6X8XwXuX5X1XrX7X3X7X7X9X9X5X6X3X2X2X9XZXMX+XUXLXJXIXLXSX&XHXBXIXGX@Xg.,.%. XzX8XbXhXCXUXnX(.lXzX}..X&X=X2X>X4XyX",
"uXpXyXgXeX9XpX9X0XqXxXUXAXhXjX8X7XqX6X7X9X6X9X8XrXsXvXLXIX=XGXJXUXGXIX1X-X0XuX&X! & + 6 6 u U.vXPXLXUXpX{.*XGXMX3X:X;X,X6X6XuXgX",
"sXkXMXPXxXwXrXrXwXpXdXCXIXUXKXpX8XwX7X0XrX0XeX0XiXsXeXtXfX9X[.HXPXIXZX`.8XwX4X_ 4 z >.S 5 q > J.UXVX2XrX$X#XhX9X,X:X;X9XrXuXcXvX",
"xXjXjXhX0XyXtXyXtXFXUXPXUXLXJXhXyX9XhXZXlX9XqXwX0XwXwX0X8XtX>X[.*X'.}.~.4XdXA.d =.gXIXr.s i y ! 4X#X{.oX%XwX%XOX&X3X2XuXpXgXvXxX",
"kXmXMXlXZXBXdXSXFXUX2X;XmXUXFX8XqXeXcXLXUXcXdXyXrXrXqXrXtXqXsXpX5XeXiX4X0XtX;.G j.MXU.] #.a q E 0X=X%XoXoX%X@X<XqX8XwXfXaXhXmXMX",
"UXVXDXCXHX7XbXHXKXIX-XE.&XGXCXaXzXbXPXSXVXmXsXeXuXiXaXeXqXiXtXwXpXtXtXfXjX7Xe.U +.=X@.$.%.J u } <X-X9X3X7X1X4XrXsXfXzXcXNXHXPXKX",
":XKXJXPX8X^.|.9XUXKX4X'.#XSXUXKXPXUXhXsXtXeXiXaXuXuXtXfXaXpXwXhXfXeXsXKXvXjXG.f.>XrXeX}.r.>.l d.hXzXSXcXbXcXVXDXSXSXcXlXGXPXDXCX",
"N V.bXLX7X>X[.5XfX5X_.@X.X_.rXlXqXVXhXpXgXsXiXdXlXhXuXfXtXeXhXyXuXfXfXLXHXMXOXP.xXK.PXvXG.e.H 5XCXHXPXNXgXsXjXvXpXkXgXlXxXgXhXjX",
"0.f.5.+X|.4X+XpX3X@X1X7XXX(.-X(.9XxXlXsXpXdXbXwX+X3XbXfXdXzXnXnXcXpXdXDXUXUXZXq.6X$.pXVXs.F Y.IXKXPXPXIXZXnXjXlXNXZXCXMXhXnXlXwX",
".X).G.9._ J.5X5X6X6XsX|.}.3X|.m.p.wXvXbXgXzX`.F q i x.zXkXVXUXKXNXlXUXnX~.4XVX|.,X>X1X~.! -.AXJXLXJXSXPXIXIXFXZXvXvXxXzXxXkXV.-.",
"M.rX|.x.Q { wXlXuXMXpX{.+XD.v.kX3.{.AXHXxXiXA f c G x `.CXJXKXUXJXUXUXbXqX+XwX8XyXU.c.h.q.W.NXjXkXnXnXmXBXCXBXzXhXkXjXlXMX9X%.#.",
"Y u.5XE.M.`.N.V.i.NXgX`.I.j.;.}.' 1XIXPXDX(.L S k M.o.b.UXKXUXLXIXUXUXUXAXpXtX3X4XZ.gX*XU.}.mXbXbXlXnXvXbXlXgXzXnXMXcXiXoXl.o.{ ",
") V.rXeXvX}.q.} X.(.IXG.U.DXfX}.%.nXUXHXKXG.U W e.@X..K.PXKXUXKXUXPXLXUXsXb.C.G.=XQ.%XcX{.N.$XtXvXxXnXhXcXMXmXAXJ.1XVXjXr.;.$.T ",
"1.v.o.<X XH.].' b D.UX(.>.UXCXp.XXUXKXUXUXrXU 7.PXCXf.5XUXFXUXUXUXUXPXUXPXgXV.w.s.=XbX:Xn.G.nXaXqXVXxXnXcXbXbXM.T -.H.pX;.! a.3.",
"R P >.C.x.U B.3.A E 4XFXA.e._.$XPXUXUXLXPXcXW.q.(.%XQ.UXUXUXGXUXKXUXUXPXZXhX`.B.q.F.dXUX9XB.*XUX:XcXMXAXvXVXpX-.[ } 4.].g.| @.n.",
"E y.D.z.) I l.3.9.:.7XxX+X).2.%XUXFXUXUXKXUXkXR.y.{ ;XPXJXUXUXIXUXPXHXPXwXSXK.,.,.d.].xXUX_.n.Q.`.DXnXvXSXZX1Xk.OXe.r.MXIXrXoX>X",
"/ -.e.;.P 8.| m [ 8.R.t.9.).D.t.C.GXUXHXUXvX}.<.z.e.h.tXUXPXLXUXUXUXUXSXeX*Xf.1.u.f.J.U.*XW.k.y.OXJXBXFXVXSXDXKXKXqXJ.zXUXGXMXcX",
"^ E $.e.Q v +.T O.2XsXY.v.C.I.v.-.m.lXUXGXtXgXs.I / ^ b.CXUXUXIXUXAXUXJX2Xl.J.ZXUXUXNX-X0.,.a.v.,XGXDXnXNXdXw.Z.{.s./.DXMXGXFXlX",
"Y ~ _ B | <.' a 6.GX5Xb.f.y.-.*.9.z.].UXkXIXL.5.T.p.8.9.vXPXJXUXLXUXIXJX9X5.tX3X3XaXdXHXoX-.G.F.&XPXUX%Xd.Q.&._ *.N.}..XrX#X/.zX",
"D.` g.h.5X@XZ.k.|.PXyX;.u.hX8X'.}.:./.PXbX@Xe.#XUXgXyXk.MXPXIXUXUXUXJXUX>XS.dX&XoX;X XL.Y.J.V.l.eX2Xr.N.d.e.].P.E.tX].*X,X[.|.wX",
"|.:X6X-X&X1XLXUXMX+X^.h.].IXIXfXUXl.z.FX0X|.U.L.#X_.K.U.ZXUXIXIXKXBXUXJXOXP.PXUXKXNXZXmX<X|.G.A.|.^ H m.b.L.e.`.3X&Xh.Q.kXuX>XU.",
"D.gX/. .q.c.T.MXwXK.d.z. XyX'.~.lXc.9.dXiX(.J.P.!.J.N.H.hXAXFXmXs.i.uXUXpXK.CXKXJXUXUXvXKX%XM._.J.) 2.'.;XB.I.c.CXpXB.f.Q.LXaX$X",
"W.{.] $.$.$.i.F.$X$XM.l.VXZX>XR.>Xf.f.,X8Xb.T.qX(.F.m.F.u.t.rX9.O.&.a.zXaXY.NXGXPXUXPXvX$X+Xw.z.n.l.L.&XpXL.s.I.$X{.T.x.@._.@XI.",
").n.X.] ' *.f.J.5XD.t.b.nXsX<XW.@XB.R.@XoX'.C.NXjX|.Y./.m.7.r.$.g.x.D.|.8XF.eXPXDXyXtXaX~.(.=.>XJ.x.+XbXMXZ.f.B.K.r.4.u.e.).!.+X",
"T.hX~.S 1.&.7.).$X(.XXx.8XcXm.S.K.T.rXb.pXXXN.].AX6X{.OXT.+.[ &.=.+.o.J.$Xm.eXtXOX].}.~.].k.5.iXfXsXF.M.wXY.B.|.3XNXN.G.@X=XW. X",
"h.6X(.k.F.v.z./.4XI.UX2XP.(.N.g.(.:XsX].NXQ..XZ.xX0Xm.G.iX+.I t.R.1.J 3.MX/.(.7XL.(.W.(.|.6.&.9XBXh.K U %.w.I.s.a.nXeX.XP.b.g.A.",
"`.*X`.5X8X5X1X:XfX;XW.@X<X.X!.(./.I.&XkXhXY.D.I.W.R.z.p.fX'.n.L.=Xm.f.).UX/.w.,XyXuXaX<XR.j.5.nXZXb.G.{. X-XP.Y.yXFXE. X(.2X/.XX",
"Y.~.^.)./.6X%X-XhXLXXXr.t.v.0.r.4.oXIXMX6X`.8.w.y.x.c.4.5XKXbXzXPXPXUXnXCXg.Z.R._.'.).'.i.s.j.5X|.oX6XmXhXW.k.!.;X$X_.G.^.<XjXzX",
"U.N.m.Q.4XdX-X=XwXcX$X3.X.=.<.1.&.d.F.~.'.>XU.C.3.7.x.a.W.%X~.L.|.6XOXfXxX;./ L.I.K.`. X4.K.7.B.#X=XyXvXmXqX=XqXeXlXxXpXsXsXuXrX",
"7XsXnXfXlXhXaXlXhXrX].C.c.2.*.-.0.A.L.:X5X$Xn.Z.>XoXoXZ.K.C.E.OXa._.`.eXpXG.0.x.j.h.C.C.4.i.t.-XSXzXMXxXAXKXKXIXAXtX6X1X|.;XhXxX",
"bXtXfXwX:X$X:XoX.XxX~.D.M.k.S.J.h.p.yXjX'.@XH.).N.j.C.g.b.8X5XrXcXvXaXxX{.b.F.b.u.v.r.6.>.;.*.|.FXsXnXvXHXUXUXGXVXSXFXJXmXmXMXZX",
"lXZXcXtXwX;X<XdXMXvX_.U.OXqXQ.U.^.n.9X^.6.~.&X(.u.q.A.Q.6.~.UXUXIXxXZXgXR.R.m.J.K.S.F.L.D.y.O.V.AXkXKXPXUXUXJXMXcXAXBXSXIXUXdX-X",
"FXFXAXVXiXrXVXJXDXhXY.).L.q.i.i.i.,.q.! } /.rXkX=XQ.hXLXG.h.GXVXMXPXbXrX=XOX_.B.Z.).%X+X/.h.q.x.vXbXIXIXIXPXUXUXUXIXUXUXGXGXFXVX",
"GXlXaXNXcXuXBXJXHXjXJ.G.p.*.E.H.J.V.%._ E A.LXUX*X0XaXUXG.D.UXKXGXKXnX7XoX!.P.B.s.L.L.`.K.0.4.Z.MXKXUXUXUXLXUXJXFXHXZXMXBXzXbXIX",
"SXHXGXIXUXAXUXIXUXjX_.sX6XK.qX2XUXLX(.y.v b.UXhX+XwXgXZXK.|.GXMXAXUXzX/.j.#X`.}.#X&X6XY.S.8.4.m.cXAXMXDXIXPXUXHXbXMXPXAXlXxXHXCX",
"jXkXjXlX5XsXbXlXBXjXiXUXGX|.rXiXUXPX*X,X` 0.tX[.E.-X:X&XQ.jXbXBXZXCXpXL.P.U.G.6.C.d.,.<.:.+.o.P.aXiXeXqXaXsXrXaX9X9XpXsXyXcXjXgX",
"6XOXwX}.).}.&X>X<X=XuXKXjX`.(.$XCXUX$X[.5.p.tXqXR.Z.~.dX>X^.XX=X;X{.0XR.K.+X|.<.) 5.~.1X<X+Xe.r.K.oX}.OX>XoXXX*X5X). X&X.X%X8X8X",
">X8X9X;X1X8X2XOX`.K.5XmXeX^.2XU.uXUX,XA.{ C.MX<XR._.{.kXXX{.%X~._.L.P.].W.D.g.:.g..X'.!._.$XT.N. XiXyXqXqX4X8X0XoXJ.`.'.$XqX8X<X",
"XX&X|.2XiXfXoX2X@XR.9XwX{.-X>XW.6XUX6Xm.M n.vXdXM.>X+.0X;XI.4X6XoX@X].VXUXKX6Xy.i.N.`.,X.Xc.8.V.H.'.*X.X X7XuX6X6XsX@X_.#XW.T..X",
"=X^..XrX>X*X5X$X2XQ.9XuX=XSXgXXX;XSXsXA.C Y.bX%X[.1Xs.cX|.'.:X2XtXpXiXCXLXPXUX2XF.OXAXUXIXPXaXk.;X5XtX5X4XlXnXpX-X1X>X:X@X%X*X$X",
"KXUXPXLX.XK.3X].^.x.qX9X!.8X9X1X-X7X>Xw.M |.FXQ.lX4Xi.IXXXuXbXMXyX'.}.IXUXFXUX&X;X8XlXIXPXLXPXL.xXMX9X&X+X.X&X$X XxXlXxX0X>X8X*X",
"PXUXsXgXjXhXeXbXDXpX@X>X(.@X[.U.P.1X%X-.u ,XHX/.fXJ.W UX>XvXAX1X[.+X#XUXUXUXFX#X1X7XlXPXLXUXFX|.fXAXbXzXkXqX5X>X1X<X0XaXpXgXvXZX",
"oX{.L._.E.W.U.k.-X;XyX6XQ.(.,XeX<X,XXXN.1 %XmXOXrXI.O.bX:X0X7X)./.S.%XJXPXIXuXU._.}.:XUXLXPXDXE.iXpXyX;X@X>X,X=X:X+X;X=X-X&X*X-X",
"rXhXmXBXmXCXBXuXqX@X2XiXoXnXSXUXyX8X#Xn.s @XdX7XFXnXdXjX1XbXzXhXzXqX6XIXIXLX&XqXvXIXkXUXUXJXNX!.iX9X+X-XrXNXFXLXPXUXGXvXvXmXqXrX",
"iX1X,XwXaXqX=X#X;X`.NXnXQ.:X-XfXpXKXdX`.F.3XqX_.:X+X:XjX%X+X%X,X,X#X8XUXIXNX`.7X.X4XpXbXIXUXvX(.I.].]..X}.{.|.oX$X%X}.'.]. X_.}.",
"!.(._.!./._.Q.(._.E.AXZXQ.[.*X6X=XKXbX4XbXjX3X,X<X$X'.yX<XtX1XE.!.P.6XLXIX0XI.#XXX@X|.iXUXIXkXP.5X$XY./.].`.+X-X=X&X*X#XR.[.6X3X",
".X[.`.[.{._.`.XX[..XUXrXK.&XuXrX=XcXVX_._.7XOX_.,XmX2X1X*X$X$X&X.X}.1XUXAXaX'.5XtXnXZXuXCXDXjXQ.@XyXsXkXjXkXNXzX=X&X`.~.W.^./.[.",
"D.L.~.#X=X;XiXnXUXjXSXsX>XXXoXL.G.#XJXR.W.4XOX+X*XR.U.,X&XV.W.!.%X=X&XhX9XoXE.{.oX4XkX3XbX5XeX[.Z.^._.)././.).F.R.P.`.6XcXDXbXAX",
"#X>X$X`.E.R.W.P.`.}.CX*X!.J.Z.L.G./.CXY.8.|.5Xn.L.Z.H.|.Y.|.MXPXDXcXwX*X.Xn.T.~.T.Q.K.OXVXgXeX!.I.I.~.|.@XXX$X$X#X4XUXIX-X[./.Q.",
"ZXZXMX9X.XL.H.:XdXrXVXpXxXuXfXfX*XB.CX~.q.wXU.x.D.Y.*XVXcXPXUXLXKXzX*X.XQ.B.E.[.7XkXfX>X*X3X].Q.P.L.'.OX>X2X,X$X@X%XoXW.Z.L.H.H.",
"Q.J.Y.H.P.M.C.BXUXVXBXeXaX*X>X.XR.V.vX$XQ.FXiXgXmXLXeXV.~.`.oXyXUX4XH.M.L.!.eXSXzX_.A.G. XC.C.|.W.V.L.L.I.G.A.G.C.B.N.W.[.OX+X+X"
};
