/* XPM */
static char *_0c4ba35cf7a4c8cb4bfde81cd9ef430bJcvbPZPQb1qiOxU[] = {
/* columns rows colors chars-per-pixel */
"64 64 254 2 ",
"   c black",
".  c #010101",
"X  c #020202",
"o  c gray1",
"O  c #040404",
"+  c gray2",
"@  c #060606",
"#  c #070707",
"$  c gray3",
"%  c #090909",
"&  c gray4",
"*  c #0B0B0B",
"=  c #0C0C0C",
"-  c gray5",
";  c #0E0E0E",
":  c gray6",
">  c #101010",
",  c #111111",
"<  c gray7",
"1  c #131313",
"2  c gray8",
"3  c #151515",
"4  c #161616",
"5  c gray9",
"6  c #181818",
"7  c #191919",
"8  c gray10",
"9  c #1B1B1B",
"0  c gray11",
"q  c #1D1D1D",
"w  c #1E1E1E",
"e  c gray12",
"r  c #202020",
"t  c gray13",
"y  c #222222",
"u  c #232323",
"i  c gray14",
"p  c #252525",
"a  c gray15",
"s  c #272727",
"d  c #282828",
"f  c gray16",
"g  c #2A2A2A",
"h  c gray17",
"j  c #2C2C2C",
"k  c #2D2D2D",
"l  c gray18",
"z  c #2F2F2F",
"x  c gray19",
"c  c #313131",
"v  c #323232",
"b  c gray20",
"n  c #343434",
"m  c #353535",
"M  c gray21",
"N  c #373737",
"B  c gray22",
"V  c #393939",
"C  c #3A3A3A",
"Z  c gray23",
"A  c #3C3C3C",
"S  c gray24",
"D  c #3E3E3E",
"F  c #3F3F3F",
"G  c gray25",
"H  c #414141",
"J  c gray26",
"K  c #434343",
"L  c #444444",
"P  c gray27",
"I  c #464646",
"U  c gray28",
"Y  c #484848",
"T  c #494949",
"R  c gray29",
"E  c #4B4B4B",
"W  c #4C4C4C",
"Q  c gray30",
"!  c #4E4E4E",
"~  c gray31",
"^  c #505050",
"/  c #515151",
"(  c gray32",
")  c #535353",
"_  c gray33",
"`  c #555555",
"'  c #565656",
"]  c gray34",
"[  c #585858",
"{  c gray35",
"}  c #5A5A5A",
"|  c #5B5B5B",
" . c gray36",
".. c #5D5D5D",
"X. c gray37",
"o. c #5F5F5F",
"O. c #606060",
"+. c gray38",
"@. c #626262",
"#. c gray39",
"$. c #646464",
"%. c #656565",
"&. c gray40",
"*. c #676767",
"=. c #686868",
"-. c DimGray",
";. c #6A6A6A",
":. c gray42",
">. c #6C6C6C",
",. c #6D6D6D",
"<. c gray43",
"1. c #6F6F6F",
"2. c gray44",
"3. c #717171",
"4. c #727272",
"5. c gray45",
"6. c #747474",
"7. c gray46",
"8. c #767676",
"9. c #777777",
"0. c gray47",
"q. c #797979",
"w. c gray48",
"e. c #7B7B7B",
"r. c #7C7C7C",
"t. c gray49",
"y. c #7E7E7E",
"u. c gray50",
"i. c #808080",
"p. c #818181",
"a. c gray51",
"s. c #838383",
"d. c #848484",
"f. c gray52",
"g. c #868686",
"h. c gray53",
"j. c #888888",
"k. c #898989",
"l. c gray54",
"z. c #8B8B8B",
"x. c gray55",
"c. c #8D8D8D",
"v. c #8E8E8E",
"b. c gray56",
"n. c #909090",
"m. c gray57",
"M. c #929292",
"N. c #939393",
"B. c gray58",
"V. c #959595",
"C. c gray59",
"Z. c #979797",
"A. c #989898",
"S. c gray60",
"D. c #9A9A9A",
"F. c #9B9B9B",
"G. c gray61",
"H. c #9D9D9D",
"J. c gray62",
"K. c #9F9F9F",
"L. c #A0A0A0",
"P. c gray63",
"I. c #A2A2A2",
"U. c gray64",
"Y. c #A4A4A4",
"T. c #A5A5A5",
"R. c gray65",
"E. c #A7A7A7",
"W. c gray66",
"Q. c #A9A9A9",
"!. c #AAAAAA",
"~. c gray67",
"^. c #ACACAC",
"/. c gray68",
"(. c #AEAEAE",
"). c #AFAFAF",
"_. c gray69",
"`. c #B1B1B1",
"'. c #B2B2B2",
"]. c gray70",
"[. c #B4B4B4",
"{. c gray71",
"}. c #B6B6B6",
"|. c #B7B7B7",
" X c gray72",
".X c #B9B9B9",
"XX c gray73",
"oX c #BBBBBB",
"OX c #BCBCBC",
"+X c gray74",
"@X c gray",
"#X c gray75",
"$X c #C0C0C0",
"%X c #C1C1C1",
"&X c gray76",
"*X c #C3C3C3",
"=X c gray77",
"-X c #C5C5C5",
";X c #C6C6C6",
":X c gray78",
">X c #C8C8C8",
",X c gray79",
"<X c #CACACA",
"1X c #CBCBCB",
"2X c gray80",
"3X c #CDCDCD",
"4X c #CECECE",
"5X c gray81",
"6X c #D0D0D0",
"7X c gray82",
"8X c #D2D2D2",
"9X c LightGray",
"0X c gray83",
"qX c #D5D5D5",
"wX c gray84",
"eX c #D7D7D7",
"rX c #D8D8D8",
"tX c gray85",
"yX c #DADADA",
"uX c gray86",
"iX c gainsboro",
"pX c #DDDDDD",
"aX c gray87",
"sX c #DFDFDF",
"dX c gray88",
"fX c #E1E1E1",
"gX c #E2E2E2",
"hX c gray89",
"jX c #E4E4E4",
"kX c gray90",
"lX c #E6E6E6",
"zX c #E7E7E7",
"xX c gray91",
"cX c #E9E9E9",
"vX c #EAEAEA",
"bX c gray92",
"nX c #ECECEC",
"mX c gray93",
"MX c #EEEEEE",
"NX c #EFEFEF",
"BX c gray94",
"VX c #F1F1F1",
"CX c gray95",
"ZX c #F3F3F3",
"AX c #F4F4F4",
"SX c gray96",
"DX c #F6F6F6",
"FX c gray97",
"GX c #F8F8F8",
"HX c #F9F9F9",
"JX c gray98",
"KX c #FBFBFB",
"LX c #FDFDFD",
"PX c white",
/* pixels */
"X X X O X X u 4 ; * 4 b n f ) <.@.9.@XxXkXkXkXiXiX7X'.S.Z.K.>X>X-XtXtXkXfX4XL.0.$.<.M.L./.oXR.Z.S.l.p.I f f 6 j 9.X X X X X X O ",
"X O X X X X * X X O X D u O Q $.I ` 4XxX>X[.7XfXfXmXDXBXfX[.Z.S.oX[.-X>XwXkXmXkXW.g.0.t.Z.L.W.p.t.p.o.V V j J j u X X X X X * X ",
"X X X X O X O O O X O w S.4 4 J ) n o.=.$.` -XDXkXxXmXDXBXKXBXwX&XoXW./.'.@X&X7XiXwX@XM.=.0.x.g.g.` V ) o.D 4.K.g.X X X X X X X ",
"X X X X X X X X 4 1 ; X >XY O ; * f n 9.0.` =.7XDXBXBXxXfXxXBXBXKXDXtX-Xg.4.x.Z.L./.[.[.R.9.4.@.` [ Q 4.=.$.x.t.wXX X X X X X X ",
"X X X X X X u V f f * 4 kX9.; D b J I 4.@X'.[ &X'.R.kXmXmXBXkXBXBXBXxXfXiXW.W.Z.9.` o.<.x.$.Q $.[ =.M.K.Z.` /.S.-XX X X X X X X ",
"X O X X * X O 1 w a X g.KX9.D n ; j o.Q g.t.l.W.=.t.fXDXxXmXBXxXxXBXKX>XW.'.iXkXtX-Xp.Y b V $.9.) p.R.W.K.` [.Z.4X* X X X X X X ",
"O X X O X X b X X w 9.BXfXb V I <.D ) $.Y I /.oX-XiXxXmXDXxXBXBXDXBXBXDXkXiX7XxXmXfXwX'.9.n 9.<.Y =.b /./.$.L.g.-XX X X X X X X ",
"X X X X X X t.[.R.wXPXkX@.u Q 9.9.J =.o.D S.kX>XtXmXmXxXmXmXBXBXBXKXBXDXKXDX7XW.x.l.=.l.p.p.>X[ Y [ j S.@X$.R.L.&XX X X X X X X ",
"X X X X X X O o.'.&XM.V 4 n [ $.<.=.=.I <.[.tX4XtXkXmXxXmXDXmXmXDXDXBXBX'.<.J ) <.$.$.p.D o.M.[ I Y D ` /.) W.'.'.X X X X X X X ",
"X X X X O X X X * 6 u w f I ` l.4.D n [ 4.K.&XwXiXmXiXfXBXBXmXBXDXmXl.4.@.=.` <.g.l.L.L.0.o.u n Q D Y J 9.Z.K./.[.X X X X X X X ",
"X X X X X X 6 w f o.Y j b V <.<.f X V ) J ) 0.M.x.R.tXkXkXBXBXDXDXoX[ [ t.<.@.V $.l.W.g.R.t.Q n J Q Q J J 4.K.[.oXX X X X X X X ",
"X X X X X X @.Q V @.0.0.9.0.o.` D Y 9.u a n o.o.[ R.mXfXxXBXKXmX7X$.p.) 9.@.Y o.D @.x.@.g.Q [ j D Q Q Y D o.S.-XoXX X X X X X X ",
"X X X X X X wXt.J @.K.0.9.g.4.x.g.p.0.9.J w f =.M.fXkXxXKXDXPX4Xt.4.t.x.M.o.K.'.j o.) ) Q [ $.n ) $.[ ) D 4.Z.wXoXX X X X X X X ",
"X X X X O X @XY o.M.) 0.Z.p.M.S.@.@.l.<.o.f I -XPXfXiXtXiXkX&XoX4.S.l.0.l.p.L.[.n n Q ) 1 D p.Y ) p.9.[ V 4.l.7X[.X X X X X X X ",
"X X X X X X 9.V l.9.` 4.t.g.x.0.<.<.p.x.K.x.W.S.oX@X@XfXDX-X/.-X=.L.l.` t.M.W./.4.a Y J Y f I [ D p.l.=.J p.g.-XoXX X X X X X X ",
"X X X X X X 4.Y Q <.Y [ =.<.<.x.M.0.x.K.M./.oXL.=.M.@XtXkX/.>XkX<.` @.p.4.@.oXx.[.o.4 ) [ ` j V D L.M.t.J x.K.4X>XO X X X X X X ",
"X X X X X X R.'.-X/.9.9.9.0.9.S.S.p.4.x.'.W.x.L.t.K.W.W.-X[.7XfXM.[ =.<.a =.R.'.K.K.` o.o.V ) Y V [./.x.J Z.R.wX4XX X X X X X X ",
"X X X X X X fXiXiXBXiX[ ` 9.l.0.<.<.S.4X&XZ.Z.@XL.L.R.K./.W.oXwXkXp.4.0.u Y /.[.@X'.4.4.W.[ w Y [ [.'.M.Q K.K.iX>XX X X X X O X ",
"X X X X X X fX7XxXmXM.<.<.=.[ <.l.Z.W.R./.l.W.>XoX/.L.R.S.@X7XkXDX[.u /.M.W.iX@X-X[.g.M.o.9.V D J Z.oXp.) R.g.wXwXX X X X X X X ",
"X X X X X X >X4X>XY L.4XkXx.<.-XS.=.p.0.t.[.@X@X-X&XS.g.x.L.-X@XwXKXZ.0.wXmXkX-X&X4X'.oX<.S.Q 6 V K.L.9.$./.=.kX&XX X X X X X X ",
"X X X X X O >XiXg.o.KXfXDXg.0.iX4X/.x.x.'.-X'.oX&X@X<.0.L.&X4X7XfXxXS.-X'.kXKX>XwXwX&Xl.=.R.$.w w Z.L.0.l.@Xt.-Xx.X X X X X X X ",
"X X X X X X 4X>XL.&XtXxXkX-XL.kXDXwX-XoX[.x.l.-X-X&XZ.t.g./.7XwXmXxX&XZ.p.xXtXiXxXtX4X<.Q t.Y J V <.Z.M.[.tXp.oXx.O X X X X X X ",
"X X X X X X 7X/.tXS.p.xXiXwX>X/.M.tXfX@X4.0.S.oXoX[.@X-XS.x.K.oX4XiXBXoX<.K.>XxXxXiXx.j 4.l.` $.) [ t.M.S.-Xo.W./.O X X X X X X ",
"X X X X X X @XM.-XK.4.S.l.R.M.=.L.BXkXR.@.0.4.Z.@X/.R.L.&X>X7X4X>XwX7XDXx.M.iX-X7XoX@.@.W.p.=.9.$.V 9.g.I Y =.4X/.X X X X X X X ",
"X X X X X X W.x.oXiX7XwX7X@.<.W.oXmXmXkX/./.7X>X@X[.'.oX@X-X4X-X7XwXiXkXwXt.4X[.S.=.` $.Z.0.Z.t.` f I x.4.I D 7XK.X X X X X X X ",
"X X X X X X &XtXtXkXBXxX@XW.p.9.g.xXkXtXBXmXDXkXkXfXtX[./.>X7X4X&X&X>XwXiX9.M.p.Y [ 9.0.x.o.R.@.9.M.f ; $.) b -XR.X X X X X X X ",
"X X X X X X kXxXBXfXmXmXDXkXx.4.K.4X&X/.&XfX7XfXxXfXBX7X-X4X-X>X>X&XoXiXkX-Xg.oX/.t.Z.S.g.0.t.x.>X=.[ t.n 4 4 9.l.X X X X X X X ",
"X X X X X X tXwXtXBXBXDX4XS.p.oX@XS.S.l.L.W.W.oX>X&XmXxXtX&X>X4X&X[.W.-XwX7XkXmXoX@.x.[.t.t.x.W.@.[ g.4.J ` b a f X X X * X O X ",
"X X X O X X $.$.g.tXiXkXxXxXkXmX4X&XR.Z.oXR.S.M.-XoXxXxXfX7X7XoXS.'.[.W.[.[.M.o.Q f $.oX0.$.-Xp.V ) Q Y f u ) W.x.X X X X X X X ",
"X X X X X O @.Y w I 4.[.xXfX7X>X@X'.'.g.M.M.` x.x.t.L.@X-X@XL.9.K.0.M.0.M.9.` Q @.) p.W.t.W.x.4.=.) <.j J b b @.$.X X X O X O X ",
"X X X X X X t.) b w Y 4.9.x.x.S.K.[.W.M.Z.W.L.W.M.I $.9.g.'.4.S.x.x.o.[ S.Z.t.o.g.<.K.o.Z.R.I l.<.Y @.[ 0.9.t.0.Z.X X X X X X X ",
"X X X X X X [ V u 4 V 4 o.x.M.l.S.x.@.S.S.W.Z.x.[.$.Q M./.&X0.Z.K.S.g.=.4./.[ =.S.Z.Q =.p.<.Q 7X<.<.<.` Z.0.<.oXwXX X X X X X X ",
"X X X X O X I n ; w w Y M.l.M.[.@XR.0.[ 4.g.4.@.<.$.Z.L./.Z.L.x.M.[.$.K.L.K.` @.Y I L./.W.$.9.fX` =.V $.0.p.[.>Xg.X X X X X X X ",
"X X X X X X [ ; X n t.@.u ) K.W.K.R.L.j p.$.x.L./.L.<.M./.L./.9./.M.0./.-Xt.$.=.J Z.[.oXK.Z.t.wX$.Q Y 9.>X0.) Y w X X X X X O X ",
"X X X X X X V X j =.b D p.J ) <.'.-X'.o.V D J @.o.0.x.0.S.L.g.M.&Xx.M.R.oX9.[ I 9.K.oXM.9.>X` >Xx.o.I [.<.V S.&X[.X X O X X X X ",
"X X X X X O I 1 a Y ) Q f $.l.g./.oXW.l.a <.0.S.x././.t.=.[.4.Z.4X'.R.M.W.g.[ K.0.M.[.l.t.R.=.K.W.V V =.S.) D $.4.X X X X O X X ",
"X O X X X X o.o.J 6 ) =.) [ M.K.0.oXoXiXp.J $.oX[ /.R.M.I p.@.@X&X[.L.K.[.<.@.l.9.'.K.M.[.[ [ @.oXf w $.p.Y b w J X X O X X O X ",
"X X X X X X ) $.W.x.p.$.I @.l.p.[.9./.@X/.0.J x.J W.t.M.$.J <.9.oXK.L.p.g.) ` <.p.K.x.t.M.g.Q b @.a 1 [ $.Q J u ` X O X X X X X ",
"X X O X O X [ 7XxXBXiX@X$.Y Y @.@XK.` $.0.K.$.[ l.[ Y @.[ ` n @.L.R.R.l.9.J t.>X4X&XR.S.Z.oXt.4.J w 6 6 Y 4.l.p.J X X X X X X X ",
"X X X X X X 4.-XfXiXfXtXtXL.[ o.I I $.oX-X/.R.9.I 4.) I J Y j x.W.S.K.L.p.[ '.>X4XwX4XtXfX7X-Xg.[ ; 4 n [ Y @.` u X X X X X X X ",
"X X X X X X <.fXtXfXtXwX4XiXmXoXj V x.` l.x.0.Q 4 0.Y u w w u ) M./.L.t.` Q M.t.<.4.0.9.x./.K.g.f O Y 9.o.D 6 * X X X X O X X X ",
"X X X X X O l.oXtX>XwX>X4X[.fXkX=.6 a V g.o.t.l.<.f * 6 a w V <.R././.Z.9.M.'.@X>X@X>X@XK.t.J w 1 j K.l.` 4.@.6 * X X X X X O X ",
"X X X X X X b $.4XoX-XoX@X'.oX-X4Xj 6 b n $.p.t.p.9.n j b f D g.@XR.L.p.@.M.@X'.L.S.l.$.=.<.Y n w ) L.<.I g.[ j 1 O X X X X X X ",
"X O X O X X w w l.mXl./.'.R.Z.7X@XW.b X f K.'.[.K.=.n =.Q o.f o.t.Z.x.p.` 9.9.4.l.M.S.t.0.[ J b b L.K.` o.Q w u I X X X X X X X ",
"X X X X O X u a ` xXx.<.oXx.M.tX-XoXg.; ) x.K.W.&XR.[ S.W.W.b I Z.S.L.=.I @.[ g.S.M.R.R.x.` ` b n l.<.o.<.@.w n I X O X X X X X ",
"X X X X X X b n [ &XR.[ Z.9.0.tX@XR.0.4 j ` 0.p.S.M.9.` @.K.t.u =.$.g.@.g.[ j <.=.` Y Q ` Y [ f u Y ` I $.) u <.S.X X O X X X X ",
"X X X X X X ; I t.7X<.$.` t.[ iXR.[.$.w ` 9.K.M.[.&XR.) D o.x.n a V ` ` D a D p.L.oX/.S.<.J J j Q /.x.l.Z.` a ) @.X X X X X X X ",
"X X X X X X f n p.>Xg.J w @.<.-X/.'.V $.t.S.K.L.S.p.l.) D Y I j ` Z.R.9.Q M.@Xx.p.0.` ) Y o.o.V f o.n I I a Q Y u X X X X X X X ",
"X X X X X X j V =.t.R.$.O w t.0.S.R.n w Y t.0.g.0.<.l.o.b n J u n [ =.o.Y @.0.4.<.$.Y Y J ) b 1 f R.@.) 0.f a X O X X X X X X X ",
"X X X X X X 6 V 4.Y L.Z.X a V u S.9.Y w <.oXx.9.4.@.<.o.u a b a 6 J <.[ j @.p.g.t.l.g.4XoX` f n 6 D V D Q j 6 u 4 X X X X X X X ",
"X X X X O X 1 a ` f R.K.X ; * J W.Q ` D D <.=.t.p.$.=.J j u u w n S.'.` [ [.S.t.<.J V o.I j Y n 1 u u V w O O a u X X X X X X X ",
"X X X X X X w 4 b f t.4.X ; O [ /.J $.J Q =.9.oX'.S.t.D o.4 4 * a [ @.b 0.L./.M.t.Z.'.W.L.) a b a X ; 6 1 ; b a w X X X X X X X ",
"X X X X X X w 1 w 6 O f ; * O t.$.J o.D V a J <.4.[ I j o.6 ; w ` R.9.o.R.4.$.$.Q o.l.L.W.4.j ; X ; 6 ; * f J 6 ; X X X X X X X ",
"X X X X X X * 1 4 w X u O X a ` j ` Y f 0.a o.o.` =.Q o.V ; * b b g.o.Y p.p.=.t.J D $.4.Q I w 4 V o.o.j ) 4.) u X X X X X X X X ",
"X X X X X X * ; 6 4 X * O X a n u Q J 4 f u 4.l.@.0.a ) f ; w u @.9.D 4 ` l.S.x.) [ <.<.Q D ; a n j a V n V j * X X X X X X X X ",
"X X X O X X u 4 b w X X X f b f f n f j 6 b ) ) <.Q 6 6 4 ; O f x.g.w ` 4.4.0.[ @.@.<.S.<.1 O a n 4 J Q b w 1 O X X X X X X X X ",
"X X X X X X 6 j j ; X X ; f ; u j u 1 ; u a V w V 4 * ; w O 4 6 V j V =.M.L.W.4.Y @.o.I D w * Q @.l.p.Q 6 * 6 O X X X X X X X X ",
"X X X X X X 1 w ; O X X 6 6 X w 6 b V @.b w ` a u ; * O O 6 Y f n * V Q [ ` D D $.4.p.g.j O ; 4 a V I $.n O X X X X X X X X X X ",
"X X X X X X * ; O * X X 4 4 O u n j ) [.Y ; f a X X O X X 1 f 4 1 J $.<.9.Y ` t.M.x.=.a 1 X 6 1 * ; j u O X X O X X X X X X X X ",
"X X X X X X * O X X O X 1 u f u j 6 ) l.) O 1 4 O O * X * ; X 4 6 a j f b Q 9.[ V b j u O * * X X ; a u X 4 X X X X X X X X X X ",
"X X X X X X O X X X X X ; j Y j u w Q 9.n u [ u O X 1 ; * 1 * 4 1 X * ; O O 1 f a 6 u ; O X X X X O X 4 * O X X X X X X X X X X ",
"X X X X X X X X X X X X * u D b 4 w D Q V u @.a X X ; 4 * * ; X 1 ; X * * * X X X 4 j f ; X X X X X X X O X O O X X X X X X X X ",
"X X X X X X X X X X X X * 1 6 1 ; w a b j j Y 1 * O O ; ; * ; * X X * * O O X X ; * X * X X X X X X X X X O X * X X X X X X X X ",
"X X X X X X X X * X X O O 1 6 * 6 f 6 1 j f D O 4 X O X O * * * O X X O * X O X X O O X X X X X X X X X X O * X X X X X X X X X "
};
