/* XPM */
static char *f85700f3277e4422ea9f3739fc1eb213l6qU7t4rsogyTpBs[] = {
/* columns rows colors chars-per-pixel */
"64 64 256 2 ",
"   c black",
".  c #010101",
"X  c #020202",
"o  c gray1",
"O  c #040404",
"+  c gray2",
"@  c #060606",
"#  c #070707",
"$  c gray3",
"%  c #090909",
"&  c gray4",
"*  c #0B0B0B",
"=  c #0C0C0C",
"-  c gray5",
";  c #0E0E0E",
":  c gray6",
">  c #101010",
",  c #111111",
"<  c gray7",
"1  c #131313",
"2  c gray8",
"3  c #151515",
"4  c #161616",
"5  c gray9",
"6  c #181818",
"7  c #191919",
"8  c gray10",
"9  c #1B1B1B",
"0  c gray11",
"q  c #1D1D1D",
"w  c #1E1E1E",
"e  c gray12",
"r  c #202020",
"t  c gray13",
"y  c #222222",
"u  c #232323",
"i  c gray14",
"p  c #252525",
"a  c gray15",
"s  c #272727",
"d  c #282828",
"f  c gray16",
"g  c #2A2A2A",
"h  c gray17",
"j  c #2C2C2C",
"k  c #2D2D2D",
"l  c gray18",
"z  c #2F2F2F",
"x  c gray19",
"c  c #313131",
"v  c #323232",
"b  c gray20",
"n  c #343434",
"m  c #353535",
"M  c gray21",
"N  c #373737",
"B  c gray22",
"V  c #393939",
"C  c #3A3A3A",
"Z  c gray23",
"A  c #3C3C3C",
"S  c gray24",
"D  c #3E3E3E",
"F  c #3F3F3F",
"G  c gray25",
"H  c #414141",
"J  c gray26",
"K  c #434343",
"L  c #444444",
"P  c gray27",
"I  c #464646",
"U  c gray28",
"Y  c #484848",
"T  c #494949",
"R  c gray29",
"E  c #4B4B4B",
"W  c #4C4C4C",
"Q  c gray30",
"!  c #4E4E4E",
"~  c gray31",
"^  c #505050",
"/  c #515151",
"(  c gray32",
")  c #535353",
"_  c gray33",
"`  c #555555",
"'  c #565656",
"]  c gray34",
"[  c #585858",
"{  c gray35",
"}  c #5A5A5A",
"|  c #5B5B5B",
" . c gray36",
".. c #5D5D5D",
"X. c gray37",
"o. c #5F5F5F",
"O. c #606060",
"+. c gray38",
"@. c #626262",
"#. c gray39",
"$. c #646464",
"%. c #656565",
"&. c gray40",
"*. c #676767",
"=. c #686868",
"-. c DimGray",
";. c #6A6A6A",
":. c gray42",
">. c #6C6C6C",
",. c #6D6D6D",
"<. c gray43",
"1. c #6F6F6F",
"2. c gray44",
"3. c #717171",
"4. c #727272",
"5. c gray45",
"6. c #747474",
"7. c gray46",
"8. c #767676",
"9. c #777777",
"0. c gray47",
"q. c #797979",
"w. c gray48",
"e. c #7B7B7B",
"r. c #7C7C7C",
"t. c gray49",
"y. c #7E7E7E",
"u. c gray50",
"i. c #808080",
"p. c #818181",
"a. c gray51",
"s. c #838383",
"d. c #848484",
"f. c gray52",
"g. c #868686",
"h. c gray53",
"j. c #888888",
"k. c #898989",
"l. c gray54",
"z. c #8B8B8B",
"x. c gray55",
"c. c #8D8D8D",
"v. c #8E8E8E",
"b. c gray56",
"n. c #909090",
"m. c gray57",
"M. c #929292",
"N. c #939393",
"B. c gray58",
"V. c #959595",
"C. c gray59",
"Z. c #979797",
"A. c #989898",
"S. c gray60",
"D. c #9A9A9A",
"F. c #9B9B9B",
"G. c gray61",
"H. c #9D9D9D",
"J. c gray62",
"K. c #9F9F9F",
"L. c #A0A0A0",
"P. c gray63",
"I. c #A2A2A2",
"U. c gray64",
"Y. c #A4A4A4",
"T. c #A5A5A5",
"R. c gray65",
"E. c #A7A7A7",
"W. c gray66",
"Q. c #A9A9A9",
"!. c #AAAAAA",
"~. c gray67",
"^. c #ACACAC",
"/. c gray68",
"(. c #AEAEAE",
"). c #AFAFAF",
"_. c gray69",
"`. c #B1B1B1",
"'. c #B2B2B2",
"]. c gray70",
"[. c #B4B4B4",
"{. c gray71",
"}. c #B6B6B6",
"|. c #B7B7B7",
" X c gray72",
".X c #B9B9B9",
"XX c gray73",
"oX c #BBBBBB",
"OX c #BCBCBC",
"+X c gray74",
"@X c gray",
"#X c gray75",
"$X c #C0C0C0",
"%X c #C1C1C1",
"&X c gray76",
"*X c #C3C3C3",
"=X c gray77",
"-X c #C5C5C5",
";X c #C6C6C6",
":X c gray78",
">X c #C8C8C8",
",X c gray79",
"<X c #CACACA",
"1X c #CBCBCB",
"2X c gray80",
"3X c #CDCDCD",
"4X c #CECECE",
"5X c gray81",
"6X c #D0D0D0",
"7X c gray82",
"8X c #D2D2D2",
"9X c LightGray",
"0X c gray83",
"qX c #D5D5D5",
"wX c gray84",
"eX c #D7D7D7",
"rX c #D8D8D8",
"tX c gray85",
"yX c #DADADA",
"uX c gray86",
"iX c gainsboro",
"pX c #DDDDDD",
"aX c gray87",
"sX c #DFDFDF",
"dX c gray88",
"fX c #E1E1E1",
"gX c #E2E2E2",
"hX c gray89",
"jX c #E4E4E4",
"kX c gray90",
"lX c #E6E6E6",
"zX c #E7E7E7",
"xX c gray91",
"cX c #E9E9E9",
"vX c #EAEAEA",
"bX c gray92",
"nX c #ECECEC",
"mX c gray93",
"MX c #EEEEEE",
"NX c #EFEFEF",
"BX c gray94",
"VX c #F1F1F1",
"CX c gray95",
"ZX c #F3F3F3",
"AX c #F4F4F4",
"SX c gray96",
"DX c #F6F6F6",
"FX c gray97",
"GX c #F8F8F8",
"HX c #F9F9F9",
"JX c gray98",
"KX c #FBFBFB",
"LX c gray99",
"PX c #FDFDFD",
"IX c #FEFEFE",
"UX c white",
/* pixels */
"                : O # & # # # % & + @ % # @ % & % % @ $ @ % - + % O $ @ % % = + % # $ % # # % $ $ - % $ + % &                   ",
"                $         .       X O X             .   .     .   X +       X X       X           +       . .                   ",
"                = O + o . + o             o O .   .     @ X   O   . .   o           O @ X   .     +   . .     X                 ",
"                3 = - & + @ o         o # O       O         + .   @ # . +     o   . @ $ o         o     %     X                 ",
"                e 2 4 1 % o       X . X + O . X X + .   X .   X @ % %   .           O @         .   .   ,   .                   ",
"                d w e 0 : O       X     O # o   .   O # @ & o +     o X .   +   . . O + .   X O X   O o 5 X O                   ",
"                j i a y 4 - @ o   .   + & o   X   [ j.Q.4X XA.W.;.w     O   O       . X     + $     X # 1 + +                   ",
"                v j x h t 0 3 : @ + @ ; *   : N `.AXUXAX%X{.SXUXIXI.s.h._ =   O .     X   o % = . . O > , = % O                 ",
"                N m b z d i 0 1 , - : , . %.!.rXUXPXkX[.=XPXGXtX%X8X8XUXUXxX+.    @     #   % , X * : 7 3 3 6                   ",
"                C N m n x j a q 4 < @ # g.nX,XUXUXpX{.lXAX9XwX%X XT.F.=X<XUXUXg.+   o o     : w 6 q 7 0 6 0 e .                 ",
"                D V B V N m c h f 6 2 r.8X=XBXUXfX2XzX7X*X'.yX5X&XS.,XyX;X-XGXUX!.y   h z a e f d d t t r p a                   ",
"                H A C A C B N m n x I.+X;X:X:XxX;X7XE.2X`.].;XiX9XyX>XmXuX7XFXJXnXXXA K ' ( T U b x j l l x k                   ",
"                H S A S C V Z A d u.uX7X:X>XyX;X>X*X/.%X2X7X}.m.(.%X|.&XwX;XrXIX0XcX/.L { { { ' R K F S C M v X                 ",
"                H S S S C Z S S d +XyXtXoXtXm._.gX0XpXeX/..XZX`.XXE.`.cX0X<XaXBXUXoXVXt...$.#.&.#.{ / I F B m                   ",
"                H D D S A S Z M p *X*X9X4X2X{.~.=XAXKXUXSX3XtX*X7X(.L.tXMXuXyXpXLXrXdX#XX.=.>.,.>.%.X.Q P H A                   ",
"                K G F D S D B z 3./..XxX{.%X=XpX6X|.6XUXIXIXZX;X3XgXoX$XiXUXfXsXIXFX-XgXb.>.1.&.=.=.*.' ^ ^ Y X                 ",
"                H H J F S K g a.vX5X}.qXiX_.*X0XgXmXg.Q.LXUXZXdX,X1X,X;XsXUXgX9XUXUXwXmXx.0.t.5.1.1.&.O.[ | ~                   ",
"                W Y F G K S b *XuX<X6X$XgXOX|.3XHXPXtXs.~.tXUXnX:XoX.X,XoXAXPX&XMXUXzXlX%X,.6.0.3.,.<.=.@.#.O.O                 ",
"                ~ T J I Y v L sX8XhXkXyX1XbXW.tXLXUXnX#XKX Xb.lXbXlXsX5XtXsXIXfXzXPXkXbXsX%X,.8.e.>.-.%.%.=.*.                  ",
"                ) T U I U v i.lX3X2XkXgXPXKX9X9XUXUXPX;XfXUX~.OX_.{.hXsXIXiXGXgXdXMXJXMXFXrXiX9.>.=.;.1.>.:.,..                 ",
"                ` ! W Y T x OXkX3XhXfXiXLXUXLX<X}.UXUXpX>XGX<X0X9XwXNXbXjX9XSXpXiXfXcXMXLXdXOXhX:XQ.8.>.;.1.:.                  ",
"                ` ( ~ W R Z iXgXoXIXvXR.GXIXPXDX:X4XUXNXeXgX0XOX=XgXhXxXeX*XCXFX1XmXzXaXLXrXuXK.J.B.3.w.t.u.7.X                 ",
"                } ( / Q K -.JXuX2XUX6X).W.FXUXJXUXzX5XPXkXMX3X8X*X9XuXVXbX:XNXIXuXuXIXvXCXUX:X3X<X|.x.k.j.l.d.                  ",
"                } ^ [ ` D V.UX'.=X8X|.CXZX^.IXUXKXLXMX7X2XIXUXHXpX0X=XpXIXcXbXUXhXMX1XVXfXLXtXq.C.C.x.b.z.l.b.                  ",
"                ] ( ` { T 8XUXQ.(.j.P.4X8XgXF.GXUXHXUXSX,X,X0X8X}.CXuX).cXUXSXPXzXKXeXuXvXzXcXM.d.n.l.c.z.x.z.                  ",
"                [ ] { W +.SXUX#.n.t.|.~.xX-Xy.*.sXPXwXKXIXMX|.C.=XKXHXiXkXVXcXzXGXjXBX%XMXFXgX(.g.k.c.k.z.z.x.                  ",
"                 ._ } T k.UXVXG u.FXxX5XV.XXzX;.G.W.8X;X0XcXFXiX_.1XmXUXgXmXfXfXBXfXGX*XKXPXhX5Xd.v.b.l.x.z.x.                  ",
"                X._ | ) +XIX;XT m.^.VX{ hX:X|.E.4Xj.,XUXvX6.(.tXjXVX5X&XNXxXkXgXsXdXiX4XFXUXzX7Xc.N.b.n.b.v.x..                 ",
"                X.o.| +.NXUXC.T pXW.fXo.DX>Xn.|.|.<X;XUXUX[.}.vX,XaXIXxX@X:XrXtXrXgXfX2X1XDXHXeX_.f.n.N.b.M.c.X                 ",
"                O.*.' y.UXJX6.W rXH.}.KX+XM.|.M.ZX0X0XUXmX`.Z.4XjX@XrXjX0X1XfXgXwX#X;XyXdXMXIX>X0Xr.M.M.M.B.b..                 ",
"                *.*.` ~.SXqX%.{ R.^.t.UX(.;XjX=X*XwXuXMXUX.XT.I.0XUX#X'.@XyXUXeXlXPXxXxXhXgXHX1XwXK.M.B.A.Z.B.                  ",
"                :.-.| 5XfX}.#.} b.UXSXrXyXJXKXUX$XuX-XZXJX}.;X$XA.PXiXOXwXjXPXzX>XUXlXLXDXsXyXZX&X8Xb.S.K.D.Z..                 ",
"                <.$.9.7XFXn.#.o.hXPXUXxX8.wXUXPX*XkX:XBXUX).:XUXZ.CXMX X_.'.HXUX*XlXjXUXMXeXyXIX#XU.$Xm.P.B.F.X                 ",
"                8.$.l.kXHX<.X. XUXDXnXPXFXkXLXdX:X5XfXvXPXV.XXGX/.iXKX,XuXD.5XLXNX$XyXKX0XzXaXUXfXp.J.b.K.R.I.                  ",
"                1.=.F.HXK.3.%.Q.JXrX9XUXUXLXPXrXMX$XgXsXKX|.b.FX4XwXDX7XdXIXdXiXLXlX%XnXkXfXbXlXzX1XB.L.K.G.P.                  ",
"                3. .pXlX*.q.e...d.{.h.tXLXUXUX2XaX&XeX,XUX,XgXjX7XgXjXBX{.JXUXzXjXUXtXsXSX[.:XlXkXfXT.Y.W.).~.                  ",
"                *.F.UXr.4.9.8.,.XXBXH.#XUXNXNX#X#XOXtX_.CXvXC.,XNX9XJXLXaX=XPXUXLXZXFX<XHX*X X0XrXFXR.W..X~.{..                 ",
"                ' yX:XO.q.w.r.-.#XVXz.(.pX X8XmXE.W.XXyXOXyXU.%XGXfXmXPXFX:X1XKXFXsXUX6XGXnX6XkX&XZX!.e.@X(.|.                  ",
"                k.PXg.,.p.5.p.-.6XxXhXp.:.UXFXsXI.I.eXDXKXI.T.eXGXIXtXAXuXUX_.lXUXhXDXnXmXZX(.kXhX=XUXD.^..X_.+                 ",
"                %XUXx.u.w.e.u.:.yXlXGX'.o.v.gXaX-X$XjXpXHXw.v.|.XXUXDXrXjXNXCX1XHXHXyXIXiXBXQ.iXcXE.gXFX^. XoX                  ",
"                rXfXL.+.r.q.y.3.cXMXNXR.4.X.N.UX].iXIXkXj.O.BXIX+XXXbXSX5XwXSXtXyXKXvXhXLX5X8X>XuX2XB.dXxXW.R.                  ",
"                fX4Xm.G.3.a.e.9.UX<XsXG.w.g.5.BXLXCXKXI.p.u.yX-X2X{.5XkXeX@X>X0XcXpXSXzXcXuXsXSX1X9Xn.N.;X>X$X                  ",
"                b.=X+.x.8.y.0.q.UXI.-XL.5.i.2.:XUXPXm.qX|.k.E.XXNX(.@XiXUXgX}.9XpX;XfXNX>X<XdXZX4X&X+XL.&X,X4XX                 ",
"                t.6.9.q.y.a.i.u.UXT.k.N.0.h.w.g.BX!.W.LX|.l.c.4XNX(.ZXxXUXZXoXnXrX`.fXCXpXW.9XmX>XyX X>XqX0X8X                  ",
"                g.u.w.k.p.a.r.w.PXQ.5.8.i.t.j.$.#.xX~.bX(.2.9.F.4X:XUXIXNX8XwX>XDX-XxXdXxX>X{.%X0X@X!.@XeX6X8XO                 ",
"                a.h.h.e.p.y.s.<.dX3X=.h.u.z.e.y.;XzXG.LXZ.i.-.Q.;X>XSXDXhXhXlX{.iXwXHXNXuX}.zXJ.#X4X[.&X,X6XqX.                 ",
"                a.f.a.a.f.g.s.a.q.Q.:.y.f.p.6.!.oX>X~.UXi.p.6.@XdXHXUXCX<XqX8X].:X<XaXIX1XU.:XIX8X X>XaXuX0XtX                  ",
"                g.s.s.h.s.p.a.a.s.5.j.g.s.s.q.7.Q.:XGX+X4.k.5.+XeXIXAXvX2XxX=X].Q.0X5XgX#XjX1Xg.<X:X XaXhXsXpXX                 ",
"                k.h.a.h.f.t.a.f.f.a.h.d.d.a.c.$.&XIX1X9.d.g.1.Y.9XXXGXtX*XpX4XW.n.6XsXiXL.&XS   B wXQ.tXyXsXdX                  ",
"                g.j.g.l.g.y.s.f.h.a.j.r.s.x.1.D.lX!.9.g.s.r.^.tX+XdXZX6X/.-XI.-X7XU.[.0X,XU.X.    S ].{.|.gXdX.                 ",
"                k.z.k.l.h.a.f.f.s.d.g.d.s.k.:.j.f.q.a.d.a.y.nX0XJXSXJX9X-X`.X.G.sXtXyX-X9XyX{.@..   w 5XmXaXsX.                 ",
"                n.v.k.h.h.j.h.f.h.f.d.h.d.d.z.w.f.h.j.a.:.$X:XBXAX(.KXvX:XUXm.f.#X^.cX=X$.@XCXgX=XU   q XXZXR.                  ",
"                c.x.z.h.h.k.j.h.k.d.j.s.k.s.l.l.a.g.e.m.].-XwX6XsX!.rXPXR.^.UX3.M.rX~. Xg x S.K.` U q     n.+.                  ",
"                f.h.c.z.h.j.h.l.f.g.j.j.k.d.p.f.k.e.h.UX/.a.`.nXUX<.I.GXvX:.).UXs.).XXQ.| o   T U #     @   J .                 ",
"                g.f.x.z.l.l.h.z.h.x.d.j.g.l.v.h.k.8.'.Z.+.o.MXPX-XO S rXY.ZX] =.(.X.v.p. .  # . X X   + X   . .                 ",
"                v.h.k.k.x.b.h.k.j.z.l.g.z.k.a.k.d.s.3.6.@.qXUX}.,     $.Q ^ x   X o + { ] + . X o   #     O .                   ",
"                C.d.k.x.c.b.x.x.l.v.j.z.j.h.h.k.v.t.d.7.oXVX .X . . .     . . . . O   . m = X                                   ",
"                J.k.p.V.v.v.c.v.l.h.l.z.x.v.v.g.6.{ o.W.$Xd., . . . .     . . .         %     o                                 ",
"                H.b.e.z.n.x.c.v.j.c.v.v.c.z.M...; e.-.>.6.&.-                   . . X     X   .                                 ",
"                F.D.l.d.F.V.m.v.b.N.n.x.l.z.4.0 @ K B X N g                       . . @ O +                                     ",
"                Z.Z.V.k.A.P.H.Z.C.G.P.S.H.M.- . . .     ; p   #                   X . 8 +     o     . . . .                     ",
"                J.A.A.n.y.J.I.F.P.V.F.J.4.G.m     X % X F 7 .                   .     x     X .                                 ",
"                n.J.F.m.7.D.P.C.Z.A.H.H   ) i . X     & -.o X o   . . . . . .   X   X z   O     . . . . .                       ",
"                ) z.n.f.a.I.W.S.S.J.^ O O   O O O & X  .}   # # + + @ @ @ @ + + @ @ ; i X % X & + @ @ @ + O o o                 "
};
