/* XPM */
static char *_9e1b50470ff464f85d2e2b8803fbbd8Ogqc8KAQOf1xebV8[] = {
/* columns rows colors chars-per-pixel */
"64 64 256 2 ",
"   c black",
".  c #010101",
"X  c #020202",
"o  c gray1",
"O  c #040404",
"+  c gray2",
"@  c #060606",
"#  c #070707",
"$  c gray3",
"%  c #090909",
"&  c gray4",
"*  c #0B0B0B",
"=  c #0C0C0C",
"-  c gray5",
";  c #0E0E0E",
":  c gray6",
">  c #101010",
",  c #111111",
"<  c gray7",
"1  c #131313",
"2  c gray8",
"3  c #151515",
"4  c #161616",
"5  c gray9",
"6  c #181818",
"7  c #191919",
"8  c gray10",
"9  c #1B1B1B",
"0  c gray11",
"q  c #1D1D1D",
"w  c #1E1E1E",
"e  c gray12",
"r  c #202020",
"t  c gray13",
"y  c #222222",
"u  c #232323",
"i  c gray14",
"p  c #252525",
"a  c gray15",
"s  c #272727",
"d  c #282828",
"f  c gray16",
"g  c #2A2A2A",
"h  c gray17",
"j  c #2C2C2C",
"k  c #2D2D2D",
"l  c gray18",
"z  c #2F2F2F",
"x  c gray19",
"c  c #313131",
"v  c #323232",
"b  c gray20",
"n  c #343434",
"m  c #353535",
"M  c gray21",
"N  c #373737",
"B  c gray22",
"V  c #393939",
"C  c #3A3A3A",
"Z  c gray23",
"A  c #3C3C3C",
"S  c gray24",
"D  c #3E3E3E",
"F  c #3F3F3F",
"G  c gray25",
"H  c #414141",
"J  c gray26",
"K  c #434343",
"L  c #444444",
"P  c gray27",
"I  c #464646",
"U  c gray28",
"Y  c #484848",
"T  c #494949",
"R  c gray29",
"E  c #4B4B4B",
"W  c #4C4C4C",
"Q  c gray30",
"!  c #4E4E4E",
"~  c gray31",
"^  c #505050",
"/  c #515151",
"(  c gray32",
")  c #535353",
"_  c gray33",
"`  c #555555",
"'  c #565656",
"]  c gray34",
"[  c #585858",
"{  c gray35",
"}  c #5A5A5A",
"|  c #5B5B5B",
" . c gray36",
".. c #5D5D5D",
"X. c gray37",
"o. c #5F5F5F",
"O. c #606060",
"+. c gray38",
"@. c #626262",
"#. c gray39",
"$. c #646464",
"%. c #656565",
"&. c gray40",
"*. c #676767",
"=. c #686868",
"-. c DimGray",
";. c #6A6A6A",
":. c gray42",
">. c #6C6C6C",
",. c #6D6D6D",
"<. c gray43",
"1. c #6F6F6F",
"2. c gray44",
"3. c #717171",
"4. c #727272",
"5. c gray45",
"6. c #747474",
"7. c gray46",
"8. c #767676",
"9. c #777777",
"0. c gray47",
"q. c #797979",
"w. c gray48",
"e. c #7B7B7B",
"r. c #7C7C7C",
"t. c gray49",
"y. c #7E7E7E",
"u. c gray50",
"i. c #808080",
"p. c #818181",
"a. c gray51",
"s. c #838383",
"d. c #848484",
"f. c gray52",
"g. c #868686",
"h. c gray53",
"j. c #888888",
"k. c #898989",
"l. c gray54",
"z. c #8B8B8B",
"x. c gray55",
"c. c #8D8D8D",
"v. c #8E8E8E",
"b. c gray56",
"n. c #909090",
"m. c gray57",
"M. c #929292",
"N. c #939393",
"B. c gray58",
"V. c #959595",
"C. c gray59",
"Z. c #979797",
"A. c #989898",
"S. c gray60",
"D. c #9A9A9A",
"F. c #9B9B9B",
"G. c gray61",
"H. c #9D9D9D",
"J. c gray62",
"K. c #9F9F9F",
"L. c #A0A0A0",
"P. c gray63",
"I. c #A2A2A2",
"U. c gray64",
"Y. c #A4A4A4",
"T. c #A5A5A5",
"R. c gray65",
"E. c #A7A7A7",
"W. c gray66",
"Q. c #A9A9A9",
"!. c #AAAAAA",
"~. c gray67",
"^. c #ACACAC",
"/. c gray68",
"(. c #AEAEAE",
"). c #AFAFAF",
"_. c gray69",
"`. c #B1B1B1",
"'. c #B2B2B2",
"]. c gray70",
"[. c #B4B4B4",
"{. c gray71",
"}. c #B6B6B6",
"|. c #B7B7B7",
" X c gray72",
".X c #B9B9B9",
"XX c gray73",
"oX c #BBBBBB",
"OX c #BCBCBC",
"+X c gray74",
"@X c gray",
"#X c gray75",
"$X c #C0C0C0",
"%X c #C1C1C1",
"&X c gray76",
"*X c #C3C3C3",
"=X c gray77",
"-X c #C5C5C5",
";X c #C6C6C6",
":X c gray78",
">X c #C8C8C8",
",X c gray79",
"<X c #CACACA",
"1X c #CBCBCB",
"2X c gray80",
"3X c #CDCDCD",
"4X c #CECECE",
"5X c gray81",
"6X c #D0D0D0",
"7X c gray82",
"8X c #D2D2D2",
"9X c LightGray",
"0X c gray83",
"qX c #D5D5D5",
"wX c gray84",
"eX c #D7D7D7",
"rX c #D8D8D8",
"tX c gray85",
"yX c #DADADA",
"uX c gray86",
"iX c gainsboro",
"pX c #DDDDDD",
"aX c gray87",
"sX c #DFDFDF",
"dX c gray88",
"fX c #E1E1E1",
"gX c #E2E2E2",
"hX c gray89",
"jX c #E4E4E4",
"kX c gray90",
"lX c #E6E6E6",
"zX c #E7E7E7",
"xX c gray91",
"cX c #E9E9E9",
"vX c #EAEAEA",
"bX c gray92",
"nX c #ECECEC",
"mX c gray93",
"MX c #EEEEEE",
"NX c #EFEFEF",
"BX c gray94",
"VX c #F1F1F1",
"CX c gray95",
"ZX c #F3F3F3",
"AX c #F4F4F4",
"SX c gray96",
"DX c #F6F6F6",
"FX c gray97",
"GX c #F8F8F8",
"HX c #F9F9F9",
"JX c gray98",
"KX c #FBFBFB",
"LX c gray99",
"PX c #FDFDFD",
"IX c #FEFEFE",
"UX c white",
/* pixels */
"bXbXbXbXbXbXbXbXbXbXbXbXbXbXbXbXbXbXbXbXbXbXbXbXbXbXbXbXbXbXbXbXnXbXbXbXvXvXbXnXbXbXbXbXbXbXbXbXbXbXbXbXbXbXbXbXbXbXbXbXbXbXbXbX",
"bXbXbXbXbXbXbXbXbXbXbXbXbXbXbXbXbXbXbXbXbXbXbXbXbXbXbXbXbXbXbXbXlXvXmXmXbXbXbXbXbXbXbXbXbXbXbXbXbXbXbXbXbXbXbXbXbXbXbXbXbXbXbXbX",
"bXbXbXbXbXbXbXbXbXbXbXbXbXbXbXbXbXbXbXbXbXbXbXbXbXbXbXbXbXbXbXbXnXmXbXcXbXmXmXcXbXbXbXbXbXbXbXbXbXbXbXbXbXbXbXbXbXbXbXbXbXbXbXbX",
"bXbXbXbXbXbXbXbXbXbXbXbXbXbXbXbXbXbXbXbXbXbXbXbXbXbXbXbXbXbXbXbXnXbXvXcXvXnXnXbXbXbXbXbXbXbXbXbXbXbXbXbXbXbXbXbXbXbXbXbXbXbXbXbX",
"bXbXbXbXbXbXbXbXbXbXbXbXbXbXbXbXbXbXbXbXbXbXbXbXbXbXbXbXbXbXbXbXzXcXnXMXnXxXcXMXbXbXbXbXbXbXbXbXbXbXbXbXbXbXbXbXbXbXbXbXbXbXbXbX",
"bXbXbXbXbXbXbXbXbXbXbXbXbXbXbXbXbXbXbXbXbXbXbXbXbXbXbXbXbXbXbXbXVXmXvXbXnXbXvXbXbXbXbXbXbXbXbXbXbXbXbXbXbXbXbXbXbXbXbXbXbXbXbXbX",
"bXbXbXbXbXbXbXbXbXbXbXbXbXbXbXbXbXbXbXbXbXbXbXbXbXbXbXbXbXbXbXbXbXnXbXcXvXmXmXcXbXbXbXbXbXbXbXbXbXbXbXbXbXbXbXbXbXbXbXbXbXbXbXbX",
"bXbXbXbXbXbXbXbXbXbXbXbXbXbXbXbXbXbXbXbXbXbXbXbXbXbXbXbXbXbXbXbX1XfXVXMXcXvXnXbXbXbXbXbXbXbXbXbXbXbXbXbXbXbXbXbXbXbXbXbXbXbXbXbX",
"bXbXbXbXbXbXbXbXbXbXbXbXbXbXbXbXvXbXvXMXxXMXnXxXnXlXmXbXSXeXaXHX,.P.HXcXmXlXCXbXxXvXNXcXvXbXcXnXbXbXbXbXbXbXbXbXbXbXbXbXbXbXbXbX",
"bXbXbXbXbXbXbXbXbXbXbXbXbXbXbXbXmXlXcXBXcXhXBXBXcXCXkXDX*X) fXxXU l vXbXkXVXkXhXNXnXxXmXlXBXcXnXbXbXbXbXbXbXbXbXbXbXbXbXbXbXbXbX",
"bXbXbXbXbXbXbXbXbXbXbXbXbXbXbXbXbXmXcXcXvXVXxXxXnXxXaXeXi V yX+Xy . p.mXsX;X,.jXcXVXcXbXBXzXvXvXbXbXbXbXbXbXbXbXbXbXbXbXbXbXbXbX",
"bXbXbXbXbXbXbXbXbXbXbXbXbXbXbXbXxXMXbXMXnXbXnX%XeXhX>Xn   T 9Xq.# % s 6X{.q O.UXbX@XVXzXMXmXbXcXbXbXbXbXbXbXbXbXbXbXbXbXbXbXbXbX",
"bXbXbXbXbXbXbXbXbXbXbXbXbXbXbXbXbXbXvXcXvXMXZX} =XuX[   @ n  Xf = # 8 S.H X (.'.N Z.DXMXzXzXvXMXbXbXbXbXbXbXbXbXbXbXbXbXbXbXbXbX",
"bXbXbXbXbXbXbXbXbXbXbXbXbXbXbXbXnXbXmXcXxXZXK.O '..X# ; ; 1 ^ & & = - n = q a.: 5 BXbXkXnXnXmXvXbXbXbXbXbXbXbXbXbXbXbXbXbXbXbXbX",
"bXbXbXbXbXbXbXbXbXbXbXbXbXbXbXbXvXxXMXmXbX*Xf . a.p.o : * = # ; : 1 : @ ; 4 1   O.PXxXmXvXNXxXbXbXbXbXbXbXbXbXbXbXbXbXbXbXbXbXbX",
"bXbXbXbXbXbXbXbXbXbXbXbXbXbXbXbXbXMXjX7XcXC.- o D &.  < & , , > > * # o $ @ 4 = U 7XlXnXnXzXmXbXbXbXbXbXbXbXbXbXbXbXbXbXbXbXbXbX",
"bXbXbXbXbXbXbXbXvXmXbXcXbXnXvXvXkXHX}.e.iXi.+ ; 9 l ; > = * $   X : X.] r._.3X8X2X+X4XnXcXMXvXMXvXnXvXxXbXmXbXvXbXbXbXbXbXbXbXbX",
"bXbXbXbXbXbXbXbXvXnXvXvXbXbXvXnXNXJX1.n <X2.o : = , &   O 5 D y.D. X9XQ.V.T.OXrXkX6XD.CXVXlXmXzXnXnXMXNXmXcXcXbXbXbXbXbXbXbXbXbX",
"bXbXbXbXbXbXbXbXbXbXvXbXnXvXvXNXeXCX#.  i.4.  < , o ; ] T.9XNXUXUXvX,X@X6X9XXXL.S.}.}.5XNXvXvXmXvXzXxXcXcXbXmXnXbXbXbXbXbXbXbXbX",
"bXbXbXbXbXbXbXbXbXbXvXbXnXcXbXCX[.4X} @ s Z % &   / %XKXZXCXbXkXzXlXkXaXwX*X|.J.6.d.K.&XCXzXnXbXmXmXmXcXzXnXMXcXbXbXbXbXbXbXbXbX",
"bXbXbXbXbXbXbXbXbXbXvXnXmXvXbXCX^.u.q.  % * # 9 Q rXUXfXmXmXcXzXbXvXzXpXsXzXxXwXpX1XK.M.eXMXvXxXcXnXNXmXvXvXbXvXbXbXbXbXbXbXbXbX",
"bXbXbXbXbXbXbXbXbXnXbXbXnXbXbXBX8XZ %.5 = @ N f.k.F.vXzXnXnXvXZXlXNXmXBXNXVXzXmXkXNXUX+X XGXAXBXmXvXzXcXMXbXcXnXbXbXbXbXbXbXbXbX",
"bXbXbXbXbXbXbXbXbXnXbXvXnXbXvXmXbX=.  > X Q Z.l.k.d.wXSXzXzXVXkXMXMXlXcXzXlXxXBXUXhX4X`.C. XOX0XxXBXnXxXNXMXxXvXbXbXbXbXbXbXbXbX",
"bXbXbXbXbXbXbXbXvXnXvXcXbXbXvXvXNXeXS o V b.f.k.v.h.[.nXbXNXkXBXbXcXnXxXMXZXUXiXx.6. XhXZX:X$XU.OXhXVXxXvXmXvXnXbXbXbXbXbXbXbXbX",
"bXbXbXbXbXbXbXbXbXbXbXbXbXbXbXbXzXHX1XK a.a.t.b.c.N.M.iXnXnXvXbXvXcXCXLXlX(.*.q p ;X;X,XqXdXbX%X|.nXvXvXcXBXbXcXbXbXbXbXbXbXbXbX",
"bXbXbXbXbXbXbXbXbXbXbXbXbXbXbXbXmXjXIX'.$.8.z.l.c.C.v.&XBXxXnXlXDXDX>X<.l O   + XX#XwXbX$XnXQ.`.vXxXnXnXbXzXlXVXbXbXbXbXbXbXbXbX",
"bXbXbXbXbXbXbXbXbXbXbXbXbXbXbXbXbXkXVXsX0.w.y.x.N.B.N.I.VXxXSXFX'.E l 8 X = 2 > L  X8XeXaXiX'.VXZXnXbXcXmXMXcXxXbXbXbXbXbXbXbXbX",
"bXbXbXbXbXbXbXbXbXbXbXbXbXbXbXbXvXZXvXBX7.-.b.C.m.A.G.K.jXVX`.K q ` T.l.  5 & $ O O @.U.UX8.P q.OXbXbXMXxXbXvXbXbXbXbXbXbXbXbXbX",
"bXbXbXbXbXbXbXbXbXbXbXbXbXbXbXbXNXhXxXBXgX5.v.D.B.F.F.P.n.! o t V.'.$Xl.o ; , ; : > + ; Q p h 5.fXAXgXcXvXmXbXmXbXbXbXbXbXbXbXbX",
"bXbXbXbXbXbXbXbXbXbXbXbXbXbXbXbXzXMXvXvXVX_.m.I.H.L.a.>.`.h T -.U.7X X_.  - - ; - 4 1 @   , ` oXBXlXbXMXbXvXcXvXbXbXbXbXbXbXbXbX",
"bXbXbXbXbXbXbXbXbXbXbXbXbXbXbXbXbXmXvXcXCXeXh.S.A.[ o ~ ).L 9.( k.tX*Xx.$ > # 3 +   e ,.3.p.E. XCXnXNXvXzXmXMXxXbXbXbXbXbXbXbXbX",
"bXbXbXbXbXbXbXbXbXbXbXbXbXbXbXbXbXnXvXnXvXbXm.G.j   & , J V J e.#.-XzXi.i = X z #.A X f Y.`.OXg.m.>XdXSXnXcXvXnXbXbXbXbXbXbXbXbX",
"bXbXbXbXbXbXbXbXbXbXbXbXbXbXbXbXbXcXNXxXvXSX^.s T c.2 A s B %.i.F.u.XX5XD.-.t d $.M.=.;.b.B.V.>XiX7X(.{.zXAXvXvXbXbXvXvXvXbXMXzX",
"bXbXbXbXbXbXbXbXbXbXbXbXbXbXbXbXMXxXbXbXzXBXjX#XCXlXH G.:.] l.w.{.N.%X0XE.!.8.C.U.C.G.R.R.H.#XDXmXAXAX%XV.$XJXvXNXcXmXcXNXnXlXMX",
"bXbXbXbXbXbXbXbXbXbXbXbXbXbXbXbXxXbXMXMXcXxXmXAXFX[.c f.F.( 8.S.S.rXgXrXXXa.D.3.Z.B.Z.P.J.S.3XBXxXbXgXLXgXp.v.KXcXcXmXNXzXxXMXnX",
"bXbXbXbXbXbXbXbXbXbXbXbXbXbXbXbXbXMXnXcXbXbXcXlXZXD.d.U.Z.n.:.6.0.G.pX7X%X3.l.J.c.B.j.L.Y.K.|.mXMXzXmXnXnXFXN.y.CXbXvXzXMXnXMXcX",
"bXbXbXbXbXbXbXbXbXbXbXbXbXbXbXbXmXcXcXbXnXmXMXbXxX9XU.h.w.F.h.N ( y.6X=XuX1.>.).F.N.J.!.I.Y.G.aXnXlXbXzXBXbXJXR.M.dXBXcXmXvXlXNX",
"bXbXbXbXbXbXbXbXbXbXbXbXbXbXbXbXcXcXMXNXvXbXnXzXBXnXxXxXv.G./.:.:.9.;XNX6X! f.!.J.Y.`.Y.Y.R.L.%XVXmXCXkXxXnXfXPXfXA.tXCXxXvXmXbX",
"bXbXbXbXbXbXbXbXbXbXbXbXbXbXbXbXvXMXmXcXcXnXmXbXcXvXcXVXlX!.b.z.q.g.Y.dXn./ P.Y.H.E.R.L./.D.P.E.hXvXxXnXmXbXvXmXuXhXc.3XJXcXbXlX",
"bXbXbXbXbXbXbXbXbXbXbXbXbXbXbXbXbXnXxXvXBXvXlXMXmXcXMXxXnXdXi.0.W.k.G.k.( 4._.Y.U.I.(.E.E.F.L.Z.7XBXbXzXnXbXnXmXaX,XNXS.3XSXkXMX",
"bXbXbXbXbXbXbXbXbXbXbXbXbXbXbXbXbXbXbXbXbXbXbXbXcXNXxXBXzXBXAX!.k.H.l.$.}.C.!.Q.~.Y.!.~.R.R.L.C.OXNXmXvXbXvXbXmXzX[.NXmX}.gXVXcX",
"bXbXbXbXbXbXbXbXbXbXbXbXbXbXbXbXbXbXbXbXbXbXbXbXmXMXkXbXnXxXVXmXJ.1.n.CX4Xf.Q.H./.Q.^.^.T.Y.Y.F.`.nXNXcXmXbXBXlXAX XiXZXcX[.mXcX",
"bXbXbXbXbXbXbXbXbXbXbXbXbXbXbXbXbXbXbXbXbXbXbXbXxXnXbXvXBXcXgXCXZXwXMXGX}.J.J.K.^./.!.!.I.K.T.H.R.vXcXnXnXmXcXcXAX.X<XZXBX>X}.GX",
"bXbXbXbXbXbXbXbXbXbXbXbXbXbXbXbXbXbXbXbXbXbXbXbXnXcXMXvXvXBXvXcXbXVXkXDX_.l.!.Q.^.).E.W.I.G.T.J.J.dXMXxXnXbXzXmXZX-X*XAXgXKXU.sX",
"bXbXbXbXbXbXbXbXbXbXbXbXbXbXbXbXbXbXbXbXbXbXbXbXMXxXbXMXxXcXNXbXcXcXbXHXp.v.].~./.`.W.Q.R.L.R.J.A.&XAXzXnXcXBXxXCX0X].ZXvXVXwXL.",
"bXbXbXbXbXbXbXbXbXbXbXbXbXbXbXbXbXbXbXbXbXbXbXbXxXmXcXnXmXxXcXlXcXMXvXNXe.n._.Q.(._.Q.!.Q.T.R.K.D.I.wXZXcXbXMXxXnXdXT.NXbXjXAXQ.",
"bXbXbXbXbXbXbXbXbXbXbXbXbXbXbXbXbXbXbXbXbXbXbXbXcXNXcXlXnXMXNXMXmXxXnXyXp.z.'.^./.(.~.Q.Q.E.U.L.L.F.^.fXbXnXxXmXbXcXW.MXxXVXnXhX",
"bXbXbXbXbXbXbXbXbXbXbXbXbXbXbXbXbXbXbXbXbXbXbXbXbXxXMXNXvXxXzXbXvXcXGX=X3.k.U././.(.(.Q.Q.Q.I.I.L.E.H.`.ZXcXmXbXmXcX~.cXmXvXvXnX",
"bXbXbXbXbXbXbXbXbXbXbXbXbXbXbXbXbXbXbXbXbXbXbXbXbXbXbXbXbXbXbXbXbXvXAX).p.d.H.~.^.~.~.R.U.R.C.I.J.E.n.K.VXnXcXbXcXNX^.zXnXcXmXcX",
"bXbXbXbXbXbXbXbXbXbXbXbXbXbXbXbXbXbXbXbXbXbXbXbXbXbXbXbXbXbXbXbXmXjXKXL.b.N.f.{.W.^.E.Q.S.R.I.L.P.M.w./.ZXjXAXvXbXmX$XhXmXmXnXvX",
"bXbXbXbXbXbXbXbXbXbXbXbXbXbXbXbXbXbXbXbXbXbXbXbXbXbXbXbXbXbXbXbXbXxXDXZ.z.E.9.J./.!.E.Y.S.W.T.Z.v.a.s.=XVXcXlXMXbXNX4XsXmXNXcXnX",
"bXbXbXbXbXbXbXbXbXbXbXbXbXbXbXbXbXbXbXbXbXbXbXbXbXbXbXbXbXbXbXbXcXMXBXb.f.~.l.,.!.Y.W.C.Y.T.A.x.g.p.u.aXCXcXnXbXvXNXyX3XBXcXbXnX",
"bXbXbXbXbXbXbXbXbXbXbXbXbXbXbXbXbXbXbXbXbXbXbXbXbXbXbXbXbXbXbXbXbXvXNXs.N.P.E.O.p.F.H.l.I.Z.x.h.z.6.T.xX|.G. XnXvXvXmX|.cXcXmXbX",
"bXbXbXbXbXbXbXbXbXbXbXbXbXbXbXbXbXbXbXbXbXbXbXbXbXbXbXbXbXbXbXbXmXvXgXs.U.L.!.d.Q g.j.f.b.h.j.j.e.q.-X/.m.T.^.lXvXbXAX$X<XSXcXbX",
"bXbXbXbXbXbXbXbXbXbXbXbXbXbXbXbXbXbXbXbXbXbXbXbXbXbXbXbXbXbXbXbXbXVX7Xs.Y.Y.D.J.K @.0.a.i.s.f.f.e.v.U.M.I.J.J.pXnXmXmXgX`.BXcXnX",
"bXbXbXbXbXbXbXbXbXbXbXbXbXbXbXbXbXbXbXbXbXbXbXbXbXbXbXbXbXbXbXbXcXDX<Xq.I.K.M.D.{ J 5.u.y.h.u.y.9.J.G.M.I.T.U.dXVXcXxXGX`.wXZXcX",
"bXbXbXbXbXbXbXbXbXbXbXbXbXbXbXbXbXbXbXbXbXbXbXbXbXbXbXbXbXbXbXbXlXGX$Xh.Y.K.R.O.6.@.D 0.6.u.t.0.l.K.K.Z.I.J.Y.xXmXnXjXDX9X/.SXzX",
"nXnXnXnXnXnXnXnXnXnXnXnXnXnXnXnXnXnXnXnXnXnXnXnXnXnXnXnXnXnXnXnXnXVX].d.Q.W.1.` d.d.L T 2.7.3.,.G.F.I.A.K.H.'.cXvXnXmXxXZXT.sXmX",
"vXvXvXvXvXvXvXvXvXvXvXvXvXvXvXvXvXvXvXvXvXvXvXvXvXvXvXvXvXvXvXvXmXGXQ.d.H...` s.s.i.u.A Y 6.&.V.E.F.J.F.P.K.#XNXlXMXvXzXJXoX`.SX",
"nXnXnXnXnXnXnXnXnXnXnXnXnXnXnXnXnXnXnXnXnXnXnXnXnXnXnXnXnXnXnXnXhXAX}.I.%.{ s.z.u.u.u.[ J o.3.W.I.L.C.L.T.D.-XAXcXNXxXMXnXzXV.NX",
"vXvXvXvXvXvXvXvXvXvXvXvXvXvXvXvXvXvXvXvXvXvXvXvXvXvXvXvXvXvXvXvXbXFX].Y ` n.y.M.h.7.n.C 3.Z.K.U.P.I.A.T.T.c.0XVXbXxXnXcXlXHXL.<X",
"bXbXbXbXbXbXbXbXbXbXbXbXbXbXbXbXbXbXbXbXbXbXbXbXbXbXbXbXbXbXbXbXxXAX&Xz i.a.h.b.C.g.u.$.;.Q.C.G.E.I.T.W.F.f.bXbXbXcXMXcXcXSX*XU.",
"mXmXmXmXmXmXmXmXmXmXmXmXmXmXmXmXmXmXmXmXmXmXmXmXmXmXmXmXmXmXmXmXnXvXJXe.4.h.j.K.v.c.n.c.^ I.E.Y.L.I.E.P.k.c.ZXxXvXMXbXMXbXVXaXZ.",
"jXjXjXjXjXjXjXjXjXjXjXjXjXjXjXjXjXjXjXjXjXjXjXjXjXjXjXjXjXjXjXjXkXfXbX@X' t.a.n.Z.p.D.k.! C.R.D.b.I.J.C.q.S.bXlXgXjXhXhXkXjXgXB."
};
